X:1
T:Girls' Frontline Healing Chapter ED
T:Girls' Frontline Healing Chapter ED
T:Girls' Frontline
%%score 1 2 3 ( 4 5 )
L:1/8
Q:1/4=163
M:4/4
K:E
V:1 treble-8 nm="Electric Guitar" snm="El. Guit."
V:2 bass transpose=-12 nm="Electric Bass" snm="El. B."
V:3 treble transpose=-2 nm="B♭ Trumpet" snm="B♭ Tpt."
V:4 perc nm="Drumset" snm="D. Set"
K:none
I:percmap A A 41 normal
I:percmap ^a a 49 x
I:percmap ^b b 57 x
I:percmap c c 38 normal
I:percmap d d 45 normal
I:percmap e e 47 normal
I:percmap f f 48 normal
V:5 perc 
K:none
I:percmap A A 43 normal
I:percmap F F 36 normal
V:1
 z8 |!8va(! ^e'c'f'c' g'c'f'c' | ^e'c'e'f' e'c'd'c' | ^e'c'f'c' g'c'f'c' | ^e'c'e'f' e'c'd'c' | %5
 ^e'c'f'c' g'c'f'c' | ^e'c'e'f' e'c'd'c' | e'c'd'c' e'c'f'g' | c'g' z g'2!8va)! z c2 | %9
 gg z f z g c2- | c8 | z2 c2 cd z ^e- | ec'^b g2 z .c.d | ^e2 de z f z c- | c4 z2 cd | %15
 e2 de z f f2 | ggg f2 b2 z | gg z f z g c2- | c8 | z2 c2 cd z ^e- | e d2 ^e2 g3 | %21
 c'4- (3:2:2c'2 .g g2- | g6 z2 | z .ed.B ed z B | z .B^A.A B c2 c- | c8- | c6 z2 |] %27
V:2
 z8 | C,C,C,C,- C,C,C,C, | C,C,C,C,- C,C,C,C, | ^A,,A,,A,,A,,- A,,A,,A,,A,, | %4
 ^A,,A,,A,,A,,- A,,A,,A,,A,, | F,,F,,F,,F,,- F,,F,,F,,F,, | F,,F,,F,,F,,- F,,F,,F,,F,, | %7
 G,,G,,G,,G,,- G,,G,,G,,G,, | z G,, z G,, z4 | C,C,C,C,- C,C,C,C, | C,C,C,C,- C,C, C,2 | %11
 ^A,,A,,A,,A,,- A,,A,,A,,A,, | ^A,,A,,A,,A,,- A,,A,, A,,2 | F,,F,,F,,F,,- F,,F,,F,,F,, | %14
 F,,F,,F,,F,,- F,,F,, F,,2 | G,,G,,G,,G,,- G,,G,,G,,G,, | G,,G,,G,,G,,- G,,G,,G,,G,, | %17
 C,C,C,C,- C,C,C,C, | C,C,C,C,- C,C,C,C, | ^A,,A,,A,,A,,- A,,A,,A,,A,, | %20
 ^A,,A,,A,,A,,- A,,A,,A,,A,, | F,,F,,F,,F,,- F,,F,,F,,F,, | F,,F,,F,,F,,- F,,F,,F,,F,, | %23
 G,,G,,G,,G,,- G,,G,,G,,G,, | G,,G,,G,,G,,- G,,G,,G,,G,, | C,8- | C,6 z2 |] %27
V:3
 z8 | [^Ad]8 | z2 [^A^^f][Gg] z [f^a][A^e][Ad] | [D^A]8 | z2 [^A^^f][Gg] z [^^Ff][^E^e][Ad] | %5
 [G-^B]4 [G-^^c]4 | [G-d]4 [G^e]4 | ff^e f2 g2 ^a | z ^a z a2 z z2 | z8 | z8 | z8 | z8 | z8 | z8 | %15
 z8 |!p! ^a2 [ca]!mf! [Gg]2 c2 z | z8 | z8 | z8 | z8 | z8 | z8 | z8 | z8 | z8 | z8 |] %27
V:4
[K:C] z4 (3!>![ce]/[cf]/e/(3A/e/d/ !>![c^b]2 | ^a2 [c^b]2 ^b2 [c^b]2 | ^b2 c2 ^b2 [c^b]2 | %3
 ^b2 [c^b]2 ^b2 [c^b]2 | ^b2 c2 ^b2 !>![c^b]2 | ^a2 [c^b]2 ^b2 [c^b]2 | ^b2 c2 ^b2 [c^b]2 | %7
 ^b2 c2 [c^b]c z [c^a] | z !>![c^a] z !>!c z !>!c/c/ e/d/ z/ A/ | !>!^a2 [c^b]2 ^b2 [c^b]2 | %10
 ^b2 c2 ^b2 [c^b]2 | ^b2 [c^b]2 ^b2 [c^b]2 | ^b2 c2 ^b2 [c^b]2 | ^a2 [c^b]2 ^b2 [c^b]2 | %14
 ^b2 c2 ^b2 [c^b]2 | ^b2 [c^b]2 ^b2 [c^b]!>!c/c/ | !>!c2 z [c^a] z !>!ccc | %17
 !>!^a2 [c^b]2 ^b2 [c^b]2 | ^b2 c2 ^b2 [c^b]2 | ^b2 [c^b]2 ^b2 [c^b]2 | ^b2 c2 ^b2 [c^b]2 | %21
 ^a2 [c^b]2 ^b2 [c^b]2 | ^b2 c2 ^b2 [c^b]2 | ^b2 [c^b]2 ^b2 c!>![c^a] | %24
 z z !>!cc/c/ !>![c^b]!>![c^b] z !>!c/c/ | [c^a]2 z [c^a]2 d !>![c^a]2 | z8 |] %27
V:5
[K:C] x6 A2 | !>!F2 z2 F2 z2 | F2 z F z F z2 | F2 z2 F2 z2 | F2 z F z F z2 | F2 z2 F2 z2 | %6
 F2 z F z F z2 | F2 z F z z F!>!F | x F x F x A x A/ x/ | F2 z2 F2 z2 | F2 z F z F z2 | %11
 F2 z2 F2 z2 | F2 z F z F z2 | F2 z2 F2 z2 | F2 z F z F z2 | F2 z2 F2 z2 | x5 FFF | F2 z2 F2 z2 | %18
 F2 z F z F z2 | F2 z2 F2 z2 | F2 z F z F z2 | F2 z2 F2 z2 | F2 z F z F z2 | F2 z F z2 z F | %24
 z F z F x F z F/F/ | F2 z !>!F2 z F2 | x8 |] %27

